public/cloud-icons/azure/management/recovery-services-backup-report.svg

<?xml version="1.0" encoding="UTF-8" standalone="no"?>
<!-- Generated by Microsoft Visio, SVG Export Recovery Services Backup Report.svg Page-1 -->

<svg
   xmlns:dc="http://purl.org/dc/elements/1.1/"
   xmlns:cc="http://creativecommons.org/ns#"
   xmlns:rdf="http://www.w3.org/1999/02/22-rdf-syntax-ns#"
   xmlns:svg="http://www.w3.org/2000/svg"
   xmlns="http://www.w3.org/2000/svg"
   xmlns:sodipodi="http://sodipodi.sourceforge.net/DTD/sodipodi-0.dtd"
   xmlns:inkscape="http://www.inkscape.org/namespaces/inkscape"
   width="0.72565019in"
   height="0.78746927in"
   viewBox="0 0 52.246606 56.69777"
   xml:space="preserve"
   class="st6"
   version="1.1"
   id="svg54"
   sodipodi:docname="Recovery Services Backup Report.svg"
   style="font-size:12px;overflow:visible;color-interpolation-filters:sRGB;fill:none;fill-rule:evenodd;stroke-linecap:square;stroke-miterlimit:3"
   inkscape:version="0.92.5 (2060ec1f9f, 2020-04-08)"><metadata
   id="metadata58"><rdf:RDF><cc:Work
       rdf:about=""><dc:format>image/svg+xml</dc:format><dc:type
         rdf:resource="http://purl.org/dc/dcmitype/StillImage" /></cc:Work></rdf:RDF></metadata><sodipodi:namedview
   pagecolor="#ffffff"
   bordercolor="#666666"
   borderopacity="1"
   objecttolerance="10"
   gridtolerance="10"
   guidetolerance="10"
   inkscape:pageopacity="0"
   inkscape:pageshadow="2"
   inkscape:window-width="640"
   inkscape:window-height="480"
   id="namedview56"
   showgrid="false"
   inkscape:zoom="1.4193037"
   inkscape:cx="34.833139"
   inkscape:cy="37.791438"
   inkscape:window-x="0"
   inkscape:window-y="0"
   inkscape:window-maximized="0"
   inkscape:current-layer="svg54" />
	<style
   type="text/css"
   id="style2">
	<![CDATA[
		.st1 {fill:#b796f9;stroke:none;stroke-linecap:butt;stroke-width:34}
		.st2 {fill:url(#grad0-8);stroke:none;stroke-linecap:butt;stroke-width:34}
		.st3 {fill:#0078d4;stroke:none;stroke-linecap:butt;stroke-width:34}
		.st4 {fill:#005ba1;stroke:none;stroke-linecap:butt;stroke-width:34}
		.st5 {fill:#5ea0ef;stroke:none;stroke-linecap:butt;stroke-width:34}
		.st6 {fill:none;fill-rule:evenodd;font-size:12px;overflow:visible;stroke-linecap:square;stroke-miterlimit:3}
	]]>
	</style>

	<defs
   id="Patterns_And_Gradients">
		<linearGradient
   id="grad0-8"
   x1="-1.4021045"
   y1="103.80711"
   x2="43.090093"
   y2="103.80711"
   gradientTransform="scale(1.1742913,0.85157749)"
   gradientUnits="userSpaceOnUse">
			<stop
   offset="0"
   stop-color="#b77af4"
   stop-opacity="1"
   id="stop4" />
			<stop
   offset="0.405"
   stop-color="#9659e8"
   stop-opacity="1"
   id="stop6" />
			<stop
   offset="0.765"
   stop-color="#7f42df"
   stop-opacity="1"
   id="stop8" />
			<stop
   offset="0.995"
   stop-color="#773adc"
   stop-opacity="1"
   id="stop10" />
		</linearGradient>
	</defs>
	<g
   id="g52"
   transform="translate(-33.998374,-34.000301)">
		<title
   id="title14">Page-1</title>
		<g
   id="group13146-1"
   transform="translate(35.2224,-34.0157)">
			<title
   id="title16">Recovery Services Backup Report.13146</title>
			<g
   id="group13147-2">
				<title
   id="title18">Sheet.13147</title>
				<g
   id="shape13148-3"
   transform="translate(2.02982,-22.0869)">
					<title
   id="title20">Sheet.13148</title>
					<path
   d="M 42.07,93.84 28.72,117.52 14.59,103.19 0,121.97 3.45,124.65 14.98,109.8 29.67,124.71 45.88,95.99 Z"
   class="st1"
   id="path22"
   inkscape:connector-curvature="0"
   style="fill:#b796f9;stroke:none;stroke-width:34;stroke-linecap:butt" />
				</g>
				<g
   id="shape13149-5"
   transform="translate(0.42223,-20.3838)">
					<title
   id="title25">Sheet.13149</title>
					<path
   d="m 21.86,104.71 a 5.4899,5.46586 0 1 1 -5.55,-5.43 5.49995,5.47587 0 0 1 5.55,5.43 z m 9.36,8.23 a 5.51335,5.48921 -180 1 0 5.54,5.43 5.49995,5.47587 -180 0 0 -5.54,-5.43 z M 45.05,88.4 A 5.51335,5.48921 -180 1 0 50.6,93.83 5.5033,5.4792 -180 0 0 45.05,88.4 Z M 3.84,115.31 a 5.51335,5.48921 -180 1 0 5.54,5.44 5.50665,5.48254 -180 0 0 -5.54,-5.44 z"
   class="st2"
   id="path27"
   inkscape:connector-curvature="0"
   style="fill:url(#grad0-8);stroke:none;stroke-width:34;stroke-linecap:butt" />
				</g>
				<g
   id="shape13150-9"
   transform="translate(13.77)">
					<title
   id="title30">Sheet.13150</title>
					<path
   d="m 0,123.77 a 0.947943,0.943792 -180 0 0 0.947921,0.94377 L 7.68,124.71 a 0.947943,0.943792 -180 0 0 0.947921,-0.94377 L 8.63,100.37 A 0.947943,0.943792 -180 0 0 7.682079,99.42623 L 0.95,99.42 a 0.947943,0.943792 -180 0 0 -0.947921,0.94377 z"
   class="st3"
   id="path32"
   inkscape:connector-curvature="0"
   style="fill:#0078d4;stroke:none;stroke-width:34;stroke-linecap:butt" />
				</g>
				<g
   id="shape13151-11"
   transform="translate(27.5366)">
					<title
   id="title35">Sheet.13151</title>
					<path
   d="m 0,123.77 a 0.947943,0.943792 -180 0 0 0.947921,0.94377 L 7.68,124.71 a 0.947943,0.943792 -180 0 0 0.947921,-0.94377 L 8.63,109.12 A 0.947943,0.943792 -180 0 0 7.682079,108.17623 L 0.95,108.17 a 0.947943,0.943792 -180 0 0 -0.947921,0.94377 z"
   class="st4"
   id="path37"
   inkscape:connector-curvature="0"
   style="fill:#005ba1;stroke:none;stroke-width:34;stroke-linecap:butt" />
				</g>
				<g
   id="shape13152-13"
   transform="translate(41.3066)">
					<title
   id="title40">Sheet.13152</title>
					<path
   d="m 0,123.77 a 0.947943,0.943792 -180 0 0 0.947921,0.94377 L 7.68,124.71 a 0.947943,0.943792 -180 0 0 0.947921,-0.94377 L 8.63,91.91 A 0.947943,0.943792 -180 0 0 7.682079,90.96623 L 0.95,90.96 a 0.947943,0.943792 -180 0 0 -0.947921,0.94377 z"
   class="st4"
   id="path42"
   inkscape:connector-curvature="0"
   style="fill:#005ba1;stroke:none;stroke-width:34;stroke-linecap:butt" />
				</g>
				<g
   id="shape13153-15">
					<title
   id="title45">Sheet.13153</title>
					<path
   d="m 0,123.77 a 0.947943,0.943792 -180 0 0 0.947921,0.94377 L 7.68,124.71 a 0.947943,0.943792 -180 0 0 0.947921,-0.94377 L 8.63,109.12 A 0.947943,0.943792 -180 0 0 7.682079,108.17623 L 0.95,108.17 a 0.947943,0.943792 -180 0 0 -0.947921,0.94377 z"
   class="st5"
   id="path47"
   inkscape:connector-curvature="0"
   style="fill:#5ea0ef;stroke:none;stroke-width:34;stroke-linecap:butt" />
				</g>
			</g>
		</g>
	</g>
</svg>

<svg xmlns="http://www.w3.org/2000/svg" xml:space="preserve" width="69.662" height="75.597" style="font-size:12px;overflow:visible;color-interpolation-filters:sRGB;fill-rule:evenodd;stroke-linecap:square;stroke-miterlimit:3" viewBox="0 0 52.247 56.698"><defs><linearGradient id="a" x1="-1.402" x2="43.09" y1="103.807" y2="103.807" gradientTransform="scale(1.1743 .85158)" gradientUnits="userSpaceOnUse"><stop offset="0" stop-color="#b77af4"/><stop offset=".405" stop-color="#9659e8"/><stop offset=".765" stop-color="#7f42df"/><stop offset=".995" stop-color="#773adc"/></linearGradient></defs><g transform="translate(-33.998 -34)"><title>Page-1</title><g transform="translate(35.222 -34.016)"><title>Recovery Services Backup Report.13146</title><title>Sheet.13147</title><g transform="translate(2.03 -22.087)"><title>Sheet.13148</title><path d="m42.07 93.84-13.35 23.68-14.13-14.33L0 121.97l3.45 2.68 11.53-14.85 14.69 14.91 16.21-28.72Z" style="fill:#b796f9;stroke:none;stroke-width:34;stroke-linecap:butt"/></g><g transform="translate(.422 -20.384)"><title>Sheet.13149</title><path d="M21.86 104.71a5.49 5.466 0 1 1-5.55-5.43 5.5 5.476 0 0 1 5.55 5.43m9.36 8.23a5.513 5.49-180 1 0 5.54 5.43 5.5 5.476-180 0 0-5.54-5.43M45.05 88.4a5.513 5.49-180 1 0 5.55 5.43 5.503 5.48-180 0 0-5.55-5.43M3.84 115.31a5.513 5.49-180 1 0 5.54 5.44 5.507 5.483-180 0 0-5.54-5.44" style="fill:url(#a);stroke:none;stroke-width:34;stroke-linecap:butt"/></g><g transform="translate(13.77)"><title>Sheet.13150</title><path d="M0 123.77a.948.944-180 0 0 .948.944l6.732-.004a.948.944-180 0 0 .948-.944l.002-23.396a.948.944-180 0 0-.948-.944L.95 99.42a.948.944-180 0 0-.948.944z" style="fill:#0078d4;stroke:none;stroke-width:34;stroke-linecap:butt"/></g><g transform="translate(27.537)"><title>Sheet.13151</title><path d="M0 123.77a.948.944-180 0 0 .948.944l6.732-.004a.948.944-180 0 0 .948-.944l.002-14.646a.948.944-180 0 0-.948-.944L.95 108.17a.948.944-180 0 0-.948.944z" style="fill:#005ba1;stroke:none;stroke-width:34;stroke-linecap:butt"/></g><g transform="translate(41.307)"><title>Sheet.13152</title><path d="M0 123.77a.948.944-180 0 0 .948.944l6.732-.004a.948.944-180 0 0 .948-.944L8.63 91.91a.948.944-180 0 0-.948-.944L.95 90.96a.948.944-180 0 0-.948.944z" style="fill:#005ba1;stroke:none;stroke-width:34;stroke-linecap:butt"/></g><title>Sheet.13153</title><path d="M0 123.77a.948.944-180 0 0 .948.944l6.732-.004a.948.944-180 0 0 .948-.944l.002-14.646a.948.944-180 0 0-.948-.944L.95 108.17a.948.944-180 0 0-.948.944z" style="fill:#5ea0ef;stroke:none;stroke-width:34;stroke-linecap:butt"/></g></g></svg>
